packages/react-icons/icons/thumb-up.svg

<svg width="24" height="24" viewBox="0 0 24 24" xmlns="http://www.w3.org/2000/svg">
<path fill-rule="evenodd" clip-rule="evenodd" d="M14.519 8.69186L15.469 4.11186C15.569 3.61186 15.419 3.10186 15.059 2.74186C14.469 2.16186 13.529 2.16186 12.949 2.75186L7.40901 8.29186C7.03901 8.66186 6.82901 9.17186 6.82901 9.70186V19.6919C6.82901 20.7919 7.72901 21.6919 8.82901 21.6919H17.829C18.629 21.6919 19.349 21.2119 19.669 20.4819L22.929 12.8719C23.769 10.8919 22.319 8.69186 20.169 8.69186H14.519ZM21.0878 12.0908L17.8364 19.6807C17.8338 19.6859 17.8299 19.6897 17.8266 19.6919H8.82901V9.70186L8.82919 9.70011L13.1671 5.36221L12.0616 10.6919H20.169C20.8782 10.6919 21.3699 11.4212 21.0889 12.0883L21.0878 12.0908ZM4.82901 19.6919C4.82901 20.7919 3.92901 21.6919 2.82901 21.6919C1.72901 21.6919 0.82901 20.7919 0.82901 19.6919V11.6919C0.82901 10.5919 1.72901 9.69189 2.82901 9.69189C3.92901 9.69189 4.82901 10.5919 4.82901 11.6919V19.6919Z" />
</svg>

<svg xmlns="http://www.w3.org/2000/svg" width="24" height="24"><path fill-rule="evenodd" d="m14.519 8.692.95-4.58c.1-.5-.05-1.01-.41-1.37-.59-.58-1.53-.58-2.11.01l-5.54 5.54c-.37.37-.58.88-.58 1.41v9.99c0 1.1.9 2 2 2h9c.8 0 1.52-.48 1.84-1.21l3.26-7.61c.84-1.98-.61-4.18-2.76-4.18h-5.65Zm6.569 3.399-3.252 7.59a.03.03 0 0 1-.01.01H8.83v-9.99l4.338-4.339-1.105 5.33h8.107c.71 0 1.2.73.92 1.396l-.001.003Zm-16.259 7.6c0 1.1-.9 2-2 2s-2-.9-2-2v-8c0-1.1.9-2 2-2s2 .9 2 2v8Z" clip-rule="evenodd"/></svg>
